X:1
T: The Black Snuff Mull
C:
R:Reel
Q:232
K:Am
M:4/4
L:1/8
|:g|ed e^f g2fe|dG dB dG Gg|ed e^f g2fe|dB gB A2Ag|
ed e^f g2fe|dG dB dG Gg|ed e^f g2fe|dB gB A2Aa|
eA ed eA AB|dG dB dG GB|eA ed eA AB|dG dB A2Aa|
eA ed eA AB|dG dB dG Gg|ed e^f gb eg|dB gB A2A:|
